packages/foundations/assets/icons/functional/images/human/hand_washing_32.svg

<svg width="32" height="32" viewBox="0 0 32 32" fill="none" xmlns="http://www.w3.org/2000/svg">
<g clip-path="url(#clip0_185_1136)">
<path fill-rule="evenodd" clip-rule="evenodd" d="M22.3332 18.5011C24.166 18.5011 25.9522 19.0606 27.4549 20.1005C28.4566 20.7938 29.1716 21.3273 29.5999 21.7011C30.0417 22.0325 30.1312 22.6593 29.7999 23.1011C29.494 23.509 28.8809 23.6392 28.5049 23.3702C28.2542 23.1908 27.597 22.7011 26.5332 21.9011C25.4023 21.053 24.0431 20.5685 22.6355 20.5077L19.0614 20.5011C18.3087 20.5011 17.6526 21.0134 17.47 21.7437C17.3884 22.0703 17.5995 22.4493 17.9869 22.5011H21.9999C22.5522 22.5011 22.9999 22.9488 22.9999 23.5011C22.9999 24.014 22.5863 24.4957 21.9999 24.5011H18.0601C17.1989 24.4894 16.8577 24.3158 14.8814 23.5011C14.3411 23.2784 13.369 22.8919 11.9651 22.3418C10.8394 21.9023 9.56659 22.0761 8.59988 22.8011C8.44381 22.9182 8.3674 23.2815 8.6911 23.4157C8.90015 23.5024 11.3421 24.3904 16.0171 26.0797C16.6743 26.3187 17.363 26.4576 18.0601 26.4924L23.2077 26.5011C23.6819 26.5011 24.1551 26.5386 24.6229 26.6131L29.196 27.5205C29.7376 27.6289 30.0888 28.1557 29.9805 28.6972C29.8799 29.2001 29.3864 29.5862 28.8038 29.4817L24.5805 28.6371C24.2415 28.5693 23.8981 28.5267 23.5531 28.5097L18.4093 28.5011C17.4914 28.5011 16.5798 28.3607 15.7058 28.0855L8.00762 25.2953C7.57814 25.1391 7.20343 24.8613 6.92923 24.4957C6.14944 23.4559 6.36015 21.9809 7.39988 21.2011C8.85112 20.1127 10.741 19.8142 12.4496 20.3904C14.4646 21.1735 15.4721 21.5651 15.4721 21.5651C15.7058 19.8161 17.349 18.5011 18.9999 18.5011H22.3332ZM10.9999 16.5011C11.5522 16.5011 11.9999 16.9488 11.9999 17.5011C11.9999 18.0534 11.5522 18.5011 10.9999 18.5011C10.4476 18.5011 9.99988 18.0534 9.99988 17.5011C9.99988 16.9488 10.4476 16.5011 10.9999 16.5011ZM14.7499 15.7511C15.3022 15.7511 15.7499 16.1988 15.7499 16.7511C15.7499 17.3034 15.3022 17.7511 14.7499 17.7511C14.1976 17.7511 13.7499 17.3034 13.7499 16.7511C13.7499 16.1988 14.1976 15.7511 14.7499 15.7511ZM7.24988 15.7511C7.80216 15.7511 8.24988 16.1988 8.24988 16.7511C8.24988 17.3034 7.80216 17.7511 7.24988 17.7511C6.69759 17.7511 6.24988 17.3034 6.24988 16.7511C6.24988 16.1988 6.69759 15.7511 7.24988 15.7511ZM10.9999 13.5011C11.5522 13.5011 11.9999 13.9488 11.9999 14.5011C11.9999 15.0534 11.5522 15.5011 10.9999 15.5011C10.4476 15.5011 9.99988 15.0534 9.99988 14.5011C9.99988 13.9488 10.4476 13.5011 10.9999 13.5011ZM13.9999 12.5011C14.5522 12.5011 14.9999 12.9488 14.9999 13.5011C14.9999 14.0534 14.5522 14.5011 13.9999 14.5011C13.4476 14.5011 12.9999 14.0534 12.9999 13.5011C12.9999 12.9488 13.4476 12.5011 13.9999 12.5011ZM7.99988 12.5011C8.55216 12.5011 8.99988 12.9488 8.99988 13.5011C8.99988 14.0534 8.55216 14.5011 7.99988 14.5011C7.44759 14.5011 6.99988 14.0534 6.99988 13.5011C6.99988 12.9488 7.44759 12.5011 7.99988 12.5011ZM10.4999 2.50113C12.9142 2.50113 14.8844 4.40237 14.995 6.78929L14.9999 9.50113C14.9999 10.5555 14.1761 11.5011 12.9999 11.5011H8.99988C7.94552 11.5011 7.08171 10.6853 7.00536 9.65039L6.99988 9.05176C6.99988 8.75056 6.80879 8.50113 6.49988 8.50113H2.99988C2.44759 8.50113 1.99988 8.05341 1.99988 7.50113C1.99988 6.98829 2.41628 6.50113 2.99988 6.50113H6.49988C7.82536 6.50113 8.90992 7.53267 8.99456 8.83675L8.99988 9.50113H12.9999V7.00113C12.9999 5.67565 11.9683 4.59109 10.6643 4.50645L2.99988 4.50113C2.44759 4.50113 1.99988 4.05341 1.99988 3.50113C1.99988 2.98829 2.44536 2.50113 2.99988 2.50113H10.4999Z" fill="#1A1C1F"/>
</g>
<defs>
<clipPath id="clip0_185_1136">
<rect width="32" height="32" fill="white"/>
</clipPath>
</defs>
</svg>

<svg xmlns="http://www.w3.org/2000/svg" width="32" height="32" fill="none"><g clip-path="url(#a)"><path fill="#1A1C1F" fill-rule="evenodd" d="M22.333 18.501a9 9 0 0 1 5.122 1.6q1.503 1.04 2.145 1.6a1 1 0 0 1 .2 1.4c-.306.408-.92.538-1.295.27q-.376-.27-1.972-1.47a7 7 0 0 0-3.898-1.393l-3.574-.007a1.64 1.64 0 0 0-1.591 1.243.62.62 0 0 0 .517.757H22a1 1 0 0 1 1 1c0 .513-.414.995-1 1h-3.94c-.861-.012-1.202-.185-3.179-1q-.81-.335-2.916-1.16a3.49 3.49 0 0 0-3.365.46c-.156.117-.233.48.091.615q.314.129 7.326 2.664a7 7 0 0 0 2.043.412l5.148.01q.712 0 1.415.111l4.573.907a1 1 0 0 1 .784 1.177c-.1.503-.594.89-1.176.785l-4.223-.845a7 7 0 0 0-1.028-.127L18.41 28.5c-.918 0-1.83-.14-2.703-.416l-7.698-2.79a2.353 2.353 0 0 1-.608-4.094 5.49 5.49 0 0 1 5.05-.81l3.022 1.174c.234-1.749 1.877-3.064 3.528-3.064zm-11.333-2a1 1 0 1 1 0 2 1 1 0 0 1 0-2m3.75-.75a1 1 0 1 1 0 2 1 1 0 0 1 0-2m-7.5 0a1 1 0 1 1 0 2 1 1 0 0 1 0-2m3.75-2.25a1 1 0 1 1 0 2 1 1 0 0 1 0-2m3-1a1 1 0 1 1 0 2 1 1 0 0 1 0-2m-6 0a1 1 0 1 1 0 2 1 1 0 0 1 0-2m2.5-10a4.5 4.5 0 0 1 4.495 4.288L15 9.501c0 1.055-.824 2-2 2H9a2 2 0 0 1-1.995-1.85L7 9.05c0-.3-.191-.55-.5-.55H3a1 1 0 1 1 0-2h3.5a2.5 2.5 0 0 1 2.495 2.336L9 9.5h4v-2.5a2.5 2.5 0 0 0-2.336-2.495L3 4.501a1 1 0 0 1-1-1c0-.513.445-1 1-1z" clip-rule="evenodd"/></g><defs><clipPath id="a"><path fill="#fff" d="M0 0h32v32H0z"/></clipPath></defs></svg>
